X: 1
T: Bidh Eoin
M: 4/4
L: 1/8
R: strathspey
K: Bmin
d>cB<A F2E>F|A2A>B c<AA>c|d>cB<A F2E2|f>ed<c c<BB>c:|
d2d>f e2e>f|d2d>f e>cA2|d>cd>f e2e>f|f>ed<c c<BB>c:|
